X:2953
T:Springlek efter Perbjörs Erik ("Lappeleken")
R:Springlek
O:Lima, Dalarna
S:Efter Perbjörs Erik Persson, "[[Personer/Fjös Erik]]" (1833-1921)
B:EÖ nr 370
Z:Till abc av Lennart Sohlman
M:3/4
L:1/8
K:D
A>(c A2) c>d|e2 ((3fgf) e>c|A>(c A2) c>d|(ef) [D4d4]::!
d>(e f>)(e f>)(g|a>)(b a>)(^g a2)|f2 fd e>f|((3gag) ((3fdf) e>c|A>(c A2) c>d|(e>f) [D4d4]:|]
(:musicend:)

(:music:)
